src/images/icons/edit.svg

<svg width="14" height="14" viewBox="0 0 14 14" fill="none" xmlns="http://www.w3.org/2000/svg">
<path d="M11.6708 5.3219L8.66042 2.3469L9.65208 1.35523C9.92361 1.0837 10.2572 0.947937 10.653 0.947937C11.0482 0.947937 11.3816 1.0837 11.6531 1.35523L12.6448 2.3469C12.9163 2.61842 13.058 2.94615 13.0698 3.33006C13.0816 3.71351 12.9517 4.04099 12.6802 4.31252L11.6708 5.3219ZM0.833333 13.875C0.632639 13.875 0.464528 13.807 0.329 13.671C0.193 13.5355 0.125 13.3674 0.125 13.1667V11.1656C0.125 11.0712 0.142708 10.9798 0.178125 10.8915C0.213542 10.8027 0.266667 10.7229 0.3375 10.6521L7.63333 3.35627L10.6438 6.36669L3.34792 13.6625C3.27708 13.7334 3.19751 13.7865 3.10921 13.8219C3.02043 13.8573 2.92882 13.875 2.83437 13.875H0.833333Z" fill="white"/>
</svg>

<svg width="14" height="14" fill="none" xmlns="http://www.w3.org/2000/svg"><path d="M11.67 5.322 8.66 2.347l.992-.992a1.36 1.36 0 0 1 1.001-.407c.395 0 .729.136 1 .407l.992.992c.271.271.413.6.425.983a1.28 1.28 0 0 1-.39.983l-1.01 1.009zM.834 13.875a.684.684 0 0 1-.504-.204.683.683 0 0 1-.204-.504v-2.001a.73.73 0 0 1 .213-.514l7.295-7.296 3.01 3.01-7.295 7.296a.707.707 0 0 1-.514.213h-2z" fill="#fff"/></svg>
